X: 1
T: Maire Rua
M: 9/8
L: 1/8
R: slip jig
K: Gmaj
|:DGG GAG FGA|BBB GAB ~c3|DGG GAG FGA|BAB cAF G2 E:|
|:ded cAG FED|ded cAB ~c3|ded cAG FGA|BAB cAF G2 E:|
